!!!COM: Palestrina, Giovanni Perluigi da
!!!OPR: Missa In duplicibus minoribus (I)
!!!OMD: Credo
!!!OTL: Confiteor
**kern	**kern	**kern	**kern	**kern
*Ibass	*Itenor	*Itenor	*Icalto	*Icant
!Bassus	!Tenor 2	!Tenor 1	!Altus	!Cantus
*clefF4	*clefGv2	*clefGv2	*clefG2	*clefG2
*k[]	*k[]	*k[]	*k[]	*k[]
*E:phr	*E:phr	*E:phr	*E:phr	*E:phr
*M4/2	*M4/2	*M4/2	*M4/2	*M4/2
=157	=157	=157	=157	=157
0r	0r	0r	1e	0r
.	.	.	2c	.
.	.	.	2d	.
=158	=158	=158	=158	=158
0r	0r	1A	2e	0r
.	.	.	2e	.
.	.	2F	2d	.
.	.	2G	2e	.
=159	=159	=159	=159	=159
0r	0r	2A	1c	0r
.	.	2A	.	.
.	.	2G	2B	.
.	.	2A	[2e	.
=160	=160	=160	=160	=160
0r	0r	1.F	2e]	1a
.	.	.	4d	.
.	.	.	4c	.
.	.	.	2d	2f
.	.	2E	2e	2g
=161	=161	=161	=161	=161
0r	1d	1D	1f	2a
.	.	.	.	2a
.	2B	2E	1e	2g
.	2c	2A	.	2a
=162	=162	=162	=162	=162
0r	2d	4D	0a	1f
.	.	4E	.	.
.	2d	4F	.	.
.	.	4G	.	.
.	2c#	2A	.	2e
.	2d	2D	.	2a
=163	=163	=163	=163	=163
0r	1B	1E	2r	2a
.	.	.	2e	2g#
.	4A	1F	2c	1a
.	4B	.	.	.
.	4c	.	2f	.
.	4d	.	.	.
=164	=164	=164	=164	=164
1r	2B	0G	1e	0g
.	1c	.	.	.
2r	.	.	2d	.
[2G	2B	.	2d	.
=165	=165	=165	=165	=165
2G]	1c	2C	2e	1r
2A	.	2c	2c	.
2G	1r	2d	2B	2r
2E	.	2c	2e	2g
=166	=166	=166	=166	=166
2F	0r	2A	2d	2a
2G	.	2B	1e	2g
1A	.	1c	.	2e
.	.	.	[2c	2f
=167	=167	=167	=167	=167
1G	1r	2.d	2c]	1g
.	.	.	2B	.
.	.	8c	.	.
.	.	8B	.	.
2.F	2r	2A	1c	2.a
.	2c	4F	.	.
4E	.	4G	.	4g
=168	=168	=168	=168	=168
2D	2d	4A	1r	2f
.	.	4B	.	.
2E	2c	1c	.	1e
2F	2A	.	2r	.
4G	2B	2B	[2g	2d
4F	.	.	.	.
=169	=169	=169	=169	=169
4E	2c	1G	4g]	[0e
4D	.	.	4f	.
4C	1c	.	4e	.
4BB	.	.	4d	.
2AA	.	2A	2c	.
2E	2G	2B	2B	.
=170	=170	=170	=170	=170
0AA	1A	4c	4e	0e]
.	.	4B	4d	.
.	.	4A	4c	.
.	.	4G#	4B	.
.	1E	1A	1c	.
=171	=171	=171	=171	=171
[0E	[0E	[0G#	[0B	[0e
=172	=172	=172	=172	=172
0E]	0E]	0G#]	0B]	0e]
*-	*-	*-	*-	*-
!!!CDT: 1525/^1526/-1594/2/2
!!!OCY: Italia
!!!AGN: Mass (Paraphrase)
!!!AST: renaissance, vocal
!!!ASW: Gregorian Mass
!!!PWK: Masses, Book Mantuan I
!!!RNB: Cadence finals: A
!!!YOR: Le Opere Complete, v. 18, p. 42
!!!YOO: Rome, Italy: Fratelli Scalera
!!!END: 1992//
!!!EED: John Miller
!!!YEC: Copyright 2000, John Miller
!!!YEN: United States of America
!!!YEM: Rights to all derivative electronic formats reserved.
!!!YEM: Refer to licensing agreement for further details.
!!!YEM: This file must be accompanied by the licensing agreement.
!!!YEM: A copy of the licensing agreement may be found at http://www.music-cog.ohio-state.edu/HumdrumDatabases/Palestrina/license.txt
!!!EMD: converted to Humdrum by Bret Aarden
